_icons/SVG/046-paras.svg

<svg xmlns="http://www.w3.org/2000/svg" width="32" height="32"><g fill="#FFC172"><path d="M16 10c-4.971 0-9 3.029-9 8s4.029 8 9 8V10zm9 8c0-4.971-4.029-8-9-8v16c4.971 0 9-3.029 9-8z"/><path d="M16 10c-4.971 0-9 3.029-9 8 0 .709.09 1.373.245 2 .932-3.768 4.493-6 8.755-6v-4zm8.755 10A8.287 8.287 0 0025 18c0-4.971-4.029-8-9-8v4c4.262 0 7.823 2.232 8.755 6zM.537 22.001c.77 1.334 4.34 3.626 6.429 4.89a.993.993 0 001.02.012L2.001 16.537a3.998 3.998 0 00-1.464 5.464z"/><path d="M2.001 16.537l5.985 10.366a.993.993 0 00.5-.889c-.05-2.442-.25-6.679-1.02-8.013a4 4 0 00-5.465-1.464zm29.462 5.464c-.77 1.334-4.34 3.626-6.429 4.89a.993.993 0 01-1.02.012l5.985-10.366a3.998 3.998 0 011.464 5.464zm-1.464-5.464l-5.985 10.366a.993.993 0 01-.5-.889c.05-2.442.25-6.679 1.02-8.013a4 4 0 015.465-1.464zM16 20a2 2 0 00-2 2c0 1.105.895 1 2 1v-3zm2 2a2 2 0 00-2-2v3c1.105 0 2 .105 2-1z"/><circle cx="21.5" cy="18.5" r="2.5"/><circle cx="21" cy="19" r="1"/><circle cx="10.5" cy="18.5" r="2.5"/><circle cx="11" cy="19" r="1"/><path d="M16 23.5c0 .276-.698.5-1.25.5s-.75-.224-.75-.5.198-.5.75-.5 1.25.224 1.25.5zm2 0c0 .276-.198.5-.75.5S16 23.776 16 23.5s.698-.5 1.25-.5.75.224.75.5zm-2 1c0 .276-.698.5-1.25.5s-.75-.224-.75-.5.198-.5.75-.5 1.25.224 1.25.5zm2 0c0 .276-.198.5-.75.5S16 24.776 16 24.5s.698-.5 1.25-.5.75.224.75.5zM12.331 7.511c1.381 2.391-.439 3.717-2.83 5.098l-4-6.928a5 5 0 016.83 1.83z"/><path d="M9.501 12.609c-2.391 1.381-4.449 2.293-5.83-.098a5 5 0 011.83-6.83l4 6.928z"/><circle cx="9.464" cy="8.512" r="1"/><circle cx="6" cy="10.512" r="1"/><path d="M7.216 8.652c.005-.003.011-.003.016-.005a1 1 0 10-1-1.733c-.005.003-.007.008-.012.011l.996 1.727zM6.22 6.925a.999.999 0 00-.354 1.355 1 1 0 001.35.372L6.22 6.925zm22.109 5.566c-1.381 2.391-3.439 1.479-5.83.098l4-6.928a5 5 0 011.83 6.83zm-5.83.098c-2.391-1.381-4.211-2.707-2.83-5.098a5 5 0 016.83-1.83l-4 6.928z"/><circle cx="26.029" cy="10.509" r="1"/><circle cx="22.564" cy="8.509" r="1"/><path d="M24.784 8.632l.013.011a1 1 0 001-1.732c-.005-.003-.011-.003-.016-.005l-.997 1.726zm.996-1.726a.998.998 0 00-1.35.371.999.999 0 00.353 1.355l.997-1.726z"/></g><path fill="#FCA15E" d="M16 10c-4.971 0-9 3.029-9 8s4.029 8 9 8V10z"/><path fill="#F79654" d="M25 18c0-4.971-4.029-8-9-8v16c4.971 0 9-3.029 9-8z"/><path fill="#FFAD68" d="M16 10c-4.971 0-9 3.029-9 8 0 .709.09 1.373.245 2 .932-3.768 4.493-6 8.755-6v-4z"/><path fill="#FCA15E" d="M24.755 20A8.287 8.287 0 0025 18c0-4.971-4.029-8-9-8v4c4.262 0 7.823 2.232 8.755 6z"/><path fill="#FFB76D" d="M.537 22.001c.77 1.334 4.34 3.626 6.429 4.89a.993.993 0 001.02.012L2.001 16.537a3.998 3.998 0 00-1.464 5.464z"/><path fill="#FFC172" d="M2.001 16.537l5.985 10.366a.993.993 0 00.5-.889c-.05-2.442-.25-6.679-1.02-8.013a4 4 0 00-5.465-1.464z"/><path fill="#FFAD68" d="M31.463 22.001c-.77 1.334-4.34 3.626-6.429 4.89a.993.993 0 01-1.02.012l5.985-10.366a3.998 3.998 0 011.464 5.464z"/><path fill="#FFB76D" d="M29.999 16.537l-5.985 10.366a.993.993 0 01-.5-.889c.05-2.442.25-6.679 1.02-8.013a4 4 0 015.465-1.464zM16 20a2 2 0 00-2 2c0 1.105.895 1 2 1v-3z"/><path fill="#FFAD68" d="M18 22a2 2 0 00-2-2v3c1.105 0 2 .105 2-1z"/><circle fill="#F7F7F7" cx="21.5" cy="18.5" r="2.5"/><circle fill="#2B3332" cx="21" cy="19" r="1"/><circle fill="#FFF" cx="10.5" cy="18.5" r="2.5"/><circle fill="#373F3F" cx="11" cy="19" r="1"/><path fill="#FFF" d="M16 23.5c0 .276-.698.5-1.25.5s-.75-.224-.75-.5.198-.5.75-.5 1.25.224 1.25.5z"/><path fill="#F7F7F7" d="M18 23.5c0 .276-.198.5-.75.5S16 23.776 16 23.5s.698-.5 1.25-.5.75.224.75.5z"/><path fill="#FFF" d="M16 24.5c0 .276-.698.5-1.25.5s-.75-.224-.75-.5.198-.5.75-.5 1.25.224 1.25.5z"/><path fill="#F7F7F7" d="M18 24.5c0 .276-.198.5-.75.5S16 24.776 16 24.5s.698-.5 1.25-.5.75.224.75.5z"/><path fill="#F9ADC8" d="M12.331 7.511c1.381 2.391-.439 3.717-2.83 5.098l-4-6.928a5 5 0 016.83 1.83z"/><path fill="#F8A1C4" d="M9.501 12.609c-2.391 1.381-4.449 2.293-5.83-.098a5 5 0 011.83-6.83l4 6.928z"/><circle fill="#FEF1C6" cx="9.464" cy="8.512" r="1"/><circle fill="#FFEAA7" cx="6" cy="10.512" r="1"/><path fill="#FEF1C6" d="M7.216 8.652c.005-.003.011-.003.016-.005a1 1 0 10-1-1.733c-.005.003-.007.008-.012.011l.996 1.727z"/><path fill="#FFEAA7" d="M6.22 6.925a.999.999 0 00-.354 1.355 1 1 0 001.35.372L6.22 6.925z"/><path fill="#F297BE" d="M28.329 12.491c-1.381 2.391-3.439 1.479-5.83.098l4-6.928a5 5 0 011.83 6.83z"/><path fill="#F8A1C4" d="M22.499 12.589c-2.391-1.381-4.211-2.707-2.83-5.098a5 5 0 016.83-1.83l-4 6.928z"/><circle fill="#FFE28A" cx="26.029" cy="10.509" r="1"/><circle fill="#FFEAA7" cx="22.564" cy="8.509" r="1"/><path fill="#FFE28A" d="M24.784 8.632l.013.011a1 1 0 001-1.732c-.005-.003-.011-.003-.016-.005l-.997 1.726z"/><path fill="#FFEAA7" d="M25.78 6.906a.998.998 0 00-1.35.371.999.999 0 00.353 1.355l.997-1.726z"/></svg>

<?xml version="1.0" encoding="utf-8"?>
<!-- Generator: Adobe Illustrator 23.0.6, SVG Export Plug-In . SVG Version: 6.00 Build 0)  -->
<svg version="1.1" xmlns="http://www.w3.org/2000/svg" xmlns:xlink="http://www.w3.org/1999/xlink" x="0px" y="0px" width="32px"
	 height="32px" viewBox="0 0 32 32" enable-background="new 0 0 32 32" xml:space="preserve">
<g id="icons">
	<g>
		<g>
			<path fill="#FFC172" d="M16,10c-4.971,0-9,3.029-9,8c0,4.971,4.029,8,9,8V10z"/>
			<path fill="#FFC172" d="M25,18c0-4.971-4.029-8-9-8v16C20.971,26,25,22.971,25,18z"/>
			<path fill="#FFC172" d="M16,10c-4.971,0-9,3.029-9,8c0,0.709,0.09,1.373,0.245,2c0.932-3.768,4.493-6,8.755-6V10z"/>
			<path fill="#FFC172" d="M24.755,20C24.91,19.373,25,18.709,25,18c0-4.971-4.029-8-9-8v4C20.262,14,23.823,16.232,24.755,20z"/>
			<g>
				<path fill="#FFC172" d="M0.537,22.001c0.77,1.334,4.34,3.626,6.429,4.89c0.338,0.205,0.722,0.183,1.02,0.012L2.001,16.537
					C0.087,17.641-0.568,20.087,0.537,22.001z"/>
				<path fill="#FFC172" d="M2.001,16.537l5.985,10.366c0.297-0.172,0.508-0.493,0.5-0.889c-0.05-2.442-0.25-6.679-1.02-8.013
					C6.36,16.087,3.914,15.432,2.001,16.537z"/>
			</g>
			<g>
				<path fill="#FFC172" d="M31.463,22.001c-0.77,1.334-4.34,3.626-6.429,4.89c-0.338,0.205-0.722,0.183-1.02,0.012l5.985-10.366
					C31.913,17.641,32.568,20.087,31.463,22.001z"/>
				<path fill="#FFC172" d="M29.999,16.537l-5.985,10.366c-0.297-0.172-0.508-0.493-0.5-0.889c0.05-2.442,0.25-6.679,1.02-8.013
					C25.64,16.087,28.086,15.432,29.999,16.537z"/>
			</g>
			<path fill="#FFC172" d="M16,20c-1.105,0-2,0.895-2,2c0,1.105,0.895,1,2,1V20z"/>
			<path fill="#FFC172" d="M18,22c0-1.105-0.895-2-2-2v3C17.105,23,18,23.105,18,22z"/>
			<g>
				<circle fill="#FFC172" cx="21.5" cy="18.5" r="2.5"/>
				<circle fill="#FFC172" cx="21" cy="19" r="1"/>
			</g>
			<g>
				<circle fill="#FFC172" cx="10.5" cy="18.5" r="2.5"/>
				<circle fill="#FFC172" cx="11" cy="19" r="1"/>
			</g>
			<path fill="#FFC172" d="M16,23.5c0,0.276-0.698,0.5-1.25,0.5S14,23.776,14,23.5s0.198-0.5,0.75-0.5S16,23.224,16,23.5z"/>
			<path fill="#FFC172" d="M18,23.5c0,0.276-0.198,0.5-0.75,0.5S16,23.776,16,23.5s0.698-0.5,1.25-0.5S18,23.224,18,23.5z"/>
			<path fill="#FFC172" d="M16,24.5c0,0.276-0.698,0.5-1.25,0.5S14,24.776,14,24.5s0.198-0.5,0.75-0.5S16,24.224,16,24.5z"/>
			<path fill="#FFC172" d="M18,24.5c0,0.276-0.198,0.5-0.75,0.5S16,24.776,16,24.5s0.698-0.5,1.25-0.5S18,24.224,18,24.5z"/>
			<g>
				<g>
					<path fill="#FFC172" d="M12.331,7.511c1.381,2.391-0.439,3.717-2.83,5.098l-4-6.928C7.892,4.3,10.95,5.119,12.331,7.511z"/>
					<path fill="#FFC172" d="M9.501,12.609c-2.391,1.381-4.449,2.293-5.83-0.098s-0.561-5.449,1.83-6.83L9.501,12.609z"/>
				</g>
				<circle fill="#FFC172" cx="9.464" cy="8.512" r="1"/>
				<circle fill="#FFC172" cx="6" cy="10.512" r="1"/>
				<path fill="#FFC172" d="M7.216,8.652c0.005-0.003,0.011-0.003,0.016-0.005C7.711,8.37,7.875,7.758,7.598,7.28
					C7.322,6.802,6.711,6.638,6.232,6.914C6.227,6.917,6.225,6.922,6.22,6.925L7.216,8.652z"/>
				<path fill="#FFC172" d="M6.22,6.925C5.753,7.206,5.593,7.807,5.866,8.28C6.14,8.753,6.74,8.915,7.216,8.652L6.22,6.925z"/>
				<g>
					<path fill="#FFC172" d="M28.329,12.491c-1.381,2.391-3.439,1.479-5.83,0.098l4-6.928C28.891,7.042,29.71,10.1,28.329,12.491z"
						/>
					<path fill="#FFC172" d="M22.499,12.589c-2.391-1.381-4.211-2.707-2.83-5.098c1.381-2.391,4.439-3.211,6.83-1.83L22.499,12.589z
						"/>
				</g>
				<circle fill="#FFC172" cx="26.029" cy="10.509" r="1"/>
				<circle fill="#FFC172" cx="22.564" cy="8.509" r="1"/>
				<path fill="#FFC172" d="M24.784,8.632c0.005,0.003,0.008,0.008,0.013,0.011c0.478,0.276,1.09,0.112,1.366-0.366
					c0.276-0.478,0.112-1.09-0.366-1.366c-0.005-0.003-0.011-0.003-0.016-0.005L24.784,8.632z"/>
				<path fill="#FFC172" d="M25.78,6.906c-0.476-0.264-1.077-0.102-1.35,0.371c-0.273,0.473-0.113,1.075,0.353,1.355L25.78,6.906z"
					/>
			</g>
		</g>
		<g>
			<path fill="#FCA15E" d="M16,10c-4.971,0-9,3.029-9,8c0,4.971,4.029,8,9,8V10z"/>
			<path fill="#F79654" d="M25,18c0-4.971-4.029-8-9-8v16C20.971,26,25,22.971,25,18z"/>
			<path fill="#FFAD68" d="M16,10c-4.971,0-9,3.029-9,8c0,0.709,0.09,1.373,0.245,2c0.932-3.768,4.493-6,8.755-6V10z"/>
			<path fill="#FCA15E" d="M24.755,20C24.91,19.373,25,18.709,25,18c0-4.971-4.029-8-9-8v4C20.262,14,23.823,16.232,24.755,20z"/>
			<g>
				<path fill="#FFB76D" d="M0.537,22.001c0.77,1.334,4.34,3.626,6.429,4.89c0.338,0.205,0.722,0.183,1.02,0.012L2.001,16.537
					C0.087,17.641-0.568,20.087,0.537,22.001z"/>
				<path fill="#FFC172" d="M2.001,16.537l5.985,10.366c0.297-0.172,0.508-0.493,0.5-0.889c-0.05-2.442-0.25-6.679-1.02-8.013
					C6.36,16.087,3.914,15.432,2.001,16.537z"/>
			</g>
			<g>
				<path fill="#FFAD68" d="M31.463,22.001c-0.77,1.334-4.34,3.626-6.429,4.89c-0.338,0.205-0.722,0.183-1.02,0.012l5.985-10.366
					C31.913,17.641,32.568,20.087,31.463,22.001z"/>
				<path fill="#FFB76D" d="M29.999,16.537l-5.985,10.366c-0.297-0.172-0.508-0.493-0.5-0.889c0.05-2.442,0.25-6.679,1.02-8.013
					C25.64,16.087,28.086,15.432,29.999,16.537z"/>
			</g>
			<path fill="#FFB76D" d="M16,20c-1.105,0-2,0.895-2,2c0,1.105,0.895,1,2,1V20z"/>
			<path fill="#FFAD68" d="M18,22c0-1.105-0.895-2-2-2v3C17.105,23,18,23.105,18,22z"/>
			<g>
				<circle fill="#F7F7F7" cx="21.5" cy="18.5" r="2.5"/>
				<circle fill="#2B3332" cx="21" cy="19" r="1"/>
			</g>
			<g>
				<circle fill="#FFFFFF" cx="10.5" cy="18.5" r="2.5"/>
				<circle fill="#373F3F" cx="11" cy="19" r="1"/>
			</g>
			<path fill="#FFFFFF" d="M16,23.5c0,0.276-0.698,0.5-1.25,0.5S14,23.776,14,23.5s0.198-0.5,0.75-0.5S16,23.224,16,23.5z"/>
			<path fill="#F7F7F7" d="M18,23.5c0,0.276-0.198,0.5-0.75,0.5S16,23.776,16,23.5s0.698-0.5,1.25-0.5S18,23.224,18,23.5z"/>
			<path fill="#FFFFFF" d="M16,24.5c0,0.276-0.698,0.5-1.25,0.5S14,24.776,14,24.5s0.198-0.5,0.75-0.5S16,24.224,16,24.5z"/>
			<path fill="#F7F7F7" d="M18,24.5c0,0.276-0.198,0.5-0.75,0.5S16,24.776,16,24.5s0.698-0.5,1.25-0.5S18,24.224,18,24.5z"/>
			<g>
				<g>
					<path fill="#F9ADC8" d="M12.331,7.511c1.381,2.391-0.439,3.717-2.83,5.098l-4-6.928C7.892,4.3,10.95,5.119,12.331,7.511z"/>
					<path fill="#F8A1C4" d="M9.501,12.609c-2.391,1.381-4.449,2.293-5.83-0.098s-0.561-5.449,1.83-6.83L9.501,12.609z"/>
				</g>
				<circle fill="#FEF1C6" cx="9.464" cy="8.512" r="1"/>
				<circle fill="#FFEAA7" cx="6" cy="10.512" r="1"/>
				<path fill="#FEF1C6" d="M7.216,8.652c0.005-0.003,0.011-0.003,0.016-0.005C7.711,8.37,7.875,7.758,7.598,7.28
					C7.322,6.802,6.711,6.638,6.232,6.914C6.227,6.917,6.225,6.922,6.22,6.925L7.216,8.652z"/>
				<path fill="#FFEAA7" d="M6.22,6.925C5.753,7.206,5.593,7.807,5.866,8.28C6.14,8.753,6.74,8.915,7.216,8.652L6.22,6.925z"/>
				<g>
					<path fill="#F297BE" d="M28.329,12.491c-1.381,2.391-3.439,1.479-5.83,0.098l4-6.928C28.891,7.042,29.71,10.1,28.329,12.491z"
						/>
					<path fill="#F8A1C4" d="M22.499,12.589c-2.391-1.381-4.211-2.707-2.83-5.098c1.381-2.391,4.439-3.211,6.83-1.83L22.499,12.589z
						"/>
				</g>
				<circle fill="#FFE28A" cx="26.029" cy="10.509" r="1"/>
				<circle fill="#FFEAA7" cx="22.564" cy="8.509" r="1"/>
				<path fill="#FFE28A" d="M24.784,8.632c0.005,0.003,0.008,0.008,0.013,0.011c0.478,0.276,1.09,0.112,1.366-0.366
					c0.276-0.478,0.112-1.09-0.366-1.366c-0.005-0.003-0.011-0.003-0.016-0.005L24.784,8.632z"/>
				<path fill="#FFEAA7" d="M25.78,6.906c-0.476-0.264-1.077-0.102-1.35,0.371c-0.273,0.473-0.113,1.075,0.353,1.355L25.78,6.906z"
					/>
			</g>
		</g>
	</g>
</g>
<g id="labels">
</g>
</svg>
